X: 24673
T: MacKinnon's Brook
R: strathspey
M: 4/4
K: Adorian
B|"Am"[A/A/][A3/2A3/2]{AB}[A3/2A3/2]G/ E2 {EG}E>D|"C"E<G{EG}E>D C>DE<G|"Am"[A/G/][A3/2A3/2]{AB}[A3/2A3/2]B/ "C"{cB}c>de<a|"G"{ga}g>e (3ddB "Am"{AB}[A2A2] A:|
|:B|"Am"[A/A/][A3/2A3/2]{AB}[A3/2A3/2]B/ "C"{cB}c>de<a|"G"{ga}g>de<g d>gB<G|"Am"[A/G/][A3/2A3/2]{AB}[A3/2A3/2]B/ "C"{cB}c>de<a|"G"{ga}g>e (3ddB "Am"{AB}[A2A2] A:|

